X:1
T:Title
L:1/8
Q:1/4=100
M:4/4
K:G
V:1 treble nm="Church Organ, Staff"
V:1
 G2 d2- d/ z/ e d2 | B2 A4 E2 | E2 D2 F2 G2 | A2 B4 d2 | G2 d2- d/ z/ e d2 | B2 A4 D2 | %6
w: By~Rev.~R.~F.~Dale * * * *||||||
 D2 G2 F2 E2 | F2 E4 D2 | D2 F2- F/ z/ G A2 | B2 c6 | B2 e4 d2- | d2 G6 |] %12
w: ||||||

